bodhi-theme-moksha-sunshine/usr/share/icons/Icons-Moksha-Sunshine/apps/scalable/system-file-manager-xfce-color.svg

<?xml version="1.0" encoding="UTF-8" standalone="no"?>
<svg
   xmlns:dc="http://purl.org/dc/elements/1.1/"
   xmlns:cc="http://creativecommons.org/ns#"
   xmlns:rdf="http://www.w3.org/1999/02/22-rdf-syntax-ns#"
   xmlns:svg="http://www.w3.org/2000/svg"
   xmlns="http://www.w3.org/2000/svg"
   xmlns:sodipodi="http://sodipodi.sourceforge.net/DTD/sodipodi-0.dtd"
   xmlns:inkscape="http://www.inkscape.org/namespaces/inkscape"
   fill="#d2a052"
   height="48"
   version="1.1"
   viewBox="0 0 48 48"
   width="48"
   id="svg18"
   sodipodi:docname="system-file-manager-xfce-color.svg"
   inkscape:version="0.92.3 (2405546, 2018-03-11)"><metadata
   id="metadata24">
  <rdf:RDF>
    <cc:Work
       rdf:about="">
      <dc:format>image/svg+xml</dc:format>
      <dc:type
         rdf:resource="http://purl.org/dc/dcmitype/StillImage" />
    </cc:Work>
  </rdf:RDF>
</metadata>
<defs
   id="defs22" />
<sodipodi:namedview
   pagecolor="#d2a052"
   bordercolor="#d2a052"
   borderopacity="1"
   objecttolerance="10"
   gridtolerance="10"
   guidetolerance="10"
   inkscape:pageopacity="0"
   inkscape:pageshadow="2"
   inkscape:window-width="795"
   inkscape:window-height="480"
   id="namedview20"
   showgrid="false"
   inkscape:zoom="4.9166667"
   inkscape:cx="2.2372881"
   inkscape:cy="24"
   inkscape:window-x="38"
   inkscape:window-y="0"
   inkscape:window-maximized="0"
   inkscape:current-layer="svg18" />
<path
   d="M20 5L16 9 16 13 8 13C5.79 13 4.019531 14.79 4.019531 17L4 39C4 41.21 5.79 43 8 43L40 43C42.21 43 44 41.21 44 39L44 17C44 14.79 42.21 13 40 13L32 13 32 9 28 5 20 5zM20 9L28 9 28 13 20 13 20 9z"
   id="path2" />
<path
   d="m6.14066 18.746715c.109157-.018261 2.830987 1.418435 4.660486 1.914918 3.262341.833693 6.240223 3.34289 7.679556 4.784252.106723.12336 1.236236-.845664 2.418299-.775869 1.614634.097795 6.610708 1.502637 7.278231.545989.404775-.561612.375761-1.250642.880765-1.532868.271879-.076085-1.010617-2.421749.352428-3.17327.971865-.485729 1.795413 2.233665 2.044974 2.538413.111795.136345.704855.16962.634654-.141012-.076085-.337414-1.035371-2.94684.141012-3.384686 1.910657-.756594 1.572027 3.338832 1.621736 3.455293.105708.247937 6.654331.439064 7.051395 3.384686.229677 1.621127-5.246446 3.716418-5.782087 4.089744-.535439.373326-.490802.970444-.282023 1.339915.240024.400717 1.835384 1.753211 1.621939 2.397401-.146693.372108-3.124169-.991748-3.314281-.705058-.433586.547612 2.167522 1.918367 1.269308 2.891044-.35608.232923-4.452925-1.71527-4.442578-1.692343-.109969.041796-5.788986 1.0374-10.154058-.282226-.153794-.043419-2.801567 2.557688-3.102663 2.468211-.411673-.150954.606857-2.262274.493642-2.679628-.18504-.232517-1.876977.944068-1.974366.35263099999999999-.116461-.777289 1.484782-1.670836 1.41032-2.185985-.41289-2.92655.184431-4.63553 1.198701-6.064111.338225-.525903-3.975109-3.783171-7.0978579999999999-5.06871-3.122546-1.285539-4.793179-2.375083-4.607531-2.476733z"
   fill="#d2a052"
   fill-rule="evenodd"
   stroke="#d2a052"
   stroke-width=".202894pt"
   id="path4"
   style="fill:#d2a052;fill-opacity:1" />
<path
   d="m34.203475 28.531789c-.034289-.119708 2.131001-1.429392 2.444473-1.128296.56425.204518-2.424589 1.280264-2.444473 1.128296z"
   fill="#d2a052"
   fill-rule="evenodd"
   stroke="#d2a052troke-width="
   id="path6" />
.121737pt&quot;/&gt;<path
   d="m35.237629 29.72278c-.190721-.115244 1.296293-1.84918 1.661097-1.661097.532598.529149-1.686053 1.702285-1.661097 1.661097z"
   fill="#d2a052"
   fill-rule="evenodd"
   stroke="#d2a052troke-width="
   id="path8" />
.121737pt&quot;/&gt;<path
   d="m41.098236 21.699723c-.180779-.149533-1.598403 2.087176-1.284931 2.319287.188489.141012 1.365683-2.239549 1.284931-2.319287z"
   fill="#d2a052"
   fill-rule="evenodd"
   stroke="#d2a052troke-width="
   id="path10" />
.121737pt&quot;/&gt;<ellipse
   cx="34.686535"
   cy="24.901077"
   fill="#d2a052"
   fill-rule="evenodd"
   rx=".565475"
   ry=".643824"
   stroke="#d2a052troke-width="
   id="ellipse12" />
.113158pt&quot;/&gt;<path
   d="m39.468567 21.386326c-.089476-.103882-.56425 2.306505-.344718 2.413227.188489.141012.516772-2.287838.344718-2.413227z"
   fill="#d2a052"
   fill-rule="evenodd"
   stroke="#d2a052troke-width="
   id="path14" />
.121737pt&quot;/&gt;<path
   d="m33.41728 24.648389c-.562221.39747.308603 2.646759 1.740835 1.333423-1.125253.033072-1.500608-.296429-1.740835-1.333423z"
   fill="#d2a052"
   fill-rule="evenodd"
   stroke="#d2a052troke-width="
   id="path16" />
.121737pt&quot;/&gt;</svg>

<svg fill="#d2a052" height="48" version="1.1" viewBox="0 0 48 48" width="48" xmlns="http://www.w3.org/2000/svg"><path d="M20 5L16 9 16 13 8 13C5.79 13 4.019531 14.79 4.019531 17L4 39C4 41.21 5.79 43 8 43L40 43C42.21 43 44 41.21 44 39L44 17C44 14.79 42.21 13 40 13L32 13 32 9 28 5 20 5zM20 9L28 9 28 13 20 13 20 9zM6.140625 18.746094C6.249782 18.727833 8.971282 20.165627 10.800781 20.662109 14.063122 21.495803 17.041135 24.00395 18.480469 25.445313 18.587191 25.568672 19.716374 24.600126 20.898438 24.669922 22.513072 24.767717 27.510212 26.173444 28.177734 25.216797 28.582509 24.655185 28.553589 23.96582 29.058594 23.683594 29.330472 23.607508 28.047111 21.261287 29.410156 20.509766 30.382021 20.024036 31.205518 22.744081 31.455078 23.048828 31.566873 23.185173 32.160045 23.218835 32.089844 22.908203 32.013758 22.57079 31.054086 19.961284 32.230469 19.523438 34.141126 18.766844 33.803806 22.862054 33.853516 22.978516 33.959224 23.226453 40.507232 23.417659 40.904297 26.363281 41.133973 27.984408 35.658688 30.079799 35.123047 30.453125 34.587608 30.826451 34.631065 31.423498 34.839844 31.792969 35.079868 32.193685 36.676336 33.545263 36.462891 34.189453 36.316198 34.561562 33.33855 33.197685 33.148438 33.484375 32.714852 34.031987 35.316183 35.402324 34.417969 36.375 34.061889 36.607923 29.964262 34.660667 29.974609 34.683594 29.864641 34.72539 24.185385 35.720016 19.820313 34.400391 19.666518 34.356971 17.017892 36.958617 16.716797 36.869141 16.305124 36.718187 17.324153 34.606807 17.210938 34.189453 17.025898 33.956936 15.333717 35.134406 15.236328 34.542969 15.119867 33.76568 16.720947 32.870618 16.646484 32.355469 16.233594 29.428919 16.831434 27.721549 17.845703 26.292969 18.183928 25.767066 13.870796 22.508196 10.748047 21.222656 7.625501 19.937117 5.954977 18.847744 6.140625 18.746094zM39.46875 21.386719C39.640805 21.512108 39.311536 23.93984 39.123047 23.798828 38.903515 23.692106 39.379274 21.282837 39.46875 21.386719zM41.097656 21.699219C41.178408 21.778956 40.000989 24.160543 39.8125 24.019531 39.499028 23.78742 40.916877 21.549686 41.097656 21.699219z"/><path d="m34.203475 28.531789c-.034289-.119708 2.131001-1.429392 2.444473-1.128296.56425.204518-2.424589 1.280264-2.444473 1.128296z" fill="#d2a052" fill-rule="evenodd" stroke="#d2a052" stroke-width=".121737pt"/><path d="m35.237629 29.72278c-.190721-.115244 1.296293-1.84918 1.661097-1.661097.532598.529149-1.686053 1.702285-1.661097 1.661097z" fill="#d2a052" fill-rule="evenodd" stroke="#d2a052" stroke-width=".121737pt"/><ellipse cx="34.686535" cy="24.901077" fill="#d2a052" fill-rule="evenodd" rx=".565475" ry=".643824" stroke="#d2a052" stroke-width=".113158pt"/><path d="m33.41728 24.648389c-.562221.39747.308603 2.646759 1.740835 1.333423-1.125253.033072-1.500608-.296429-1.740835-1.333423z" fill="#d2a052" fill-rule="evenodd" stroke="#d2a052" stroke-width=".121737pt"/></svg>
